img/svg/clock.svg

<?xml version="1.0" encoding="utf-8"?><!DOCTYPE svg PUBLIC "-//W3C//DTD SVG 1.1//EN" "http://www.w3.org/Graphics/SVG/1.1/DTD/svg11.dtd"><svg version="1.1" baseProfile="full" xmlns="http://www.w3.org/2000/svg" xmlns:xlink="http://www.w3.org/1999/xlink" xmlns:ev="http://www.w3.org/2001/xml-events"   height="29px"   width="27px" ><path fill="rgb( 48, 171, 223 )" d="M26.858,6.66 C26.858,6.66 26.66,7.41900000000001 26.66,7.41900000000001 C26.518,7.96199999999999 25.959,8.28 25.411,8.13 C25.411,8.13 24.027,7.749 24.027,7.749 C22.969,11.367 20.63,14.296 17.865,15.577 C19.678,18.166 20.263,22.007 19.317,25.784 C19.317,25.784 20.699,26.164 20.699,26.164 C21.247,26.315 21.576,26.877 21.434,27.419 C21.434,27.419 21.246,28.139 21.246,28.139 C21.104,28.681 20.545,29 19.997,28.849 C19.997,28.849 0.87599999999998,23.596 0.87599999999998,23.596 C0.32900000000001,23.445 0,22.882 0.142,22.34 C0.142,22.34 0.32999999999998,21.621 0.32999999999998,21.621 C0.47199999999998,21.078 1.02999999999997,20.76 1.57799999999997,20.91 C1.57799999999997,20.91 2.96100000000001,21.29 2.96100000000001,21.29 C3.98399999999998,17.532 6.36200000000002,14.506 9.19499999999999,13.195 C7.42399999999998,10.667 6.82600000000002,6.93199999999999 7.67399999999998,3.256 C7.67399999999998,3.256 6.29000000000002,2.876 6.29000000000002,2.876 C5.74299999999999,2.72499999999999 5.41399999999999,2.16300000000001 5.55599999999998,1.62 C5.55599999999998,1.62 5.75400000000002,0.86099999999999 5.75400000000002,0.86099999999999 C5.89600000000002,0.31800000000001 6.45499999999998,0 7.00299999999999,0.15100000000001 C7.00299999999999,0.15100000000001 26.123,5.404 26.123,5.404 C26.671,5.55500000000001 27,6.11699999999999 26.858,6.66 ZM9.49400000000003,3.756 C8.69499999999999,7.316 9.55200000000002,10.921 11.696,12.785 C11.696,12.785 12.021,13.061 12.021,13.061 C12.302,13.307 12.42,13.688 12.327,14.043 C12.234,14.398 11.946,14.668 11.583,14.735 C11.583,14.735 11.165,14.818 11.165,14.818 C8.33100000000002,15.348 5.78800000000001,18.114 4.77999999999997,21.79 C4.77999999999997,21.79 17.496,25.284 17.496,25.284 C18.416,21.584 17.565,17.884 15.367,15.973 C15.367,15.973 15.045,15.683 15.045,15.683 C14.766,15.438 14.647,15.06 14.741,14.705 C14.834,14.349 15.12,14.082 15.482,14.015 C15.482,14.015 15.899,13.94 15.899,13.94 C18.664,13.423 21.164,10.742 22.208,7.25 C22.208,7.25 9.49400000000003,3.756 9.49400000000003,3.756 ZM13.885,13.035 C12.065,12.382 9.92899999999997,9.38999999999999 9.76299999999998,7.19 C9.76299999999998,7.19 20.305,10.086 20.305,10.086 C19.433,11.449 15.307,13.546 13.885,13.035 ZM15.949,23.869 C15.949,23.869 7.34500000000003,21.505 7.34500000000003,21.505 C8.185,19.503 10.417,18.353 12.622,18.959 C14.826,19.564 16.2,21.705 15.949,23.869 Z "/></svg>

<svg baseProfile="full" xmlns="http://www.w3.org/2000/svg" height="29" width="27"><path fill="rgb( 48, 171, 223 )" d="M26.858 6.66l-.198.759c-.142.543-.701.861-1.249.711l-1.384-.381c-1.058 3.618-3.397 6.547-6.162 7.828 1.813 2.589 2.398 6.43 1.452 10.207l1.382.38c.548.151.877.713.735 1.255l-.188.72c-.142.542-.701.861-1.249.71l-19.121-5.253c-.547-.151-.876-.714-.734-1.256l.188-.719c.142-.543.7-.861 1.248-.711l1.383.38c1.023-3.758 3.401-6.784 6.234-8.095-1.771-2.528-2.369-6.263-1.521-9.939l-1.384-.38c-.547-.151-.876-.713-.734-1.256l.198-.759c.142-.543.701-.861 1.249-.71l19.12 5.253c.548.151.877.713.735 1.256zm-17.364-2.904c-.799 3.56.058 7.165 2.202 9.029l.325.276c.281.246.399.627.306.982-.093.355-.381.625-.744.692l-.418.083c-2.834.53-5.377 3.296-6.385 6.972l12.716 3.494c.92-3.7.069-7.4-2.129-9.311l-.322-.29c-.279-.245-.398-.623-.304-.978.093-.356.379-.623.741-.69l.417-.075c2.765-.517 5.265-3.198 6.309-6.69l-12.714-3.494zm4.391 9.279c-1.82-.653-3.956-3.645-4.122-5.845l10.542 2.896c-.872 1.363-4.998 3.46-6.42 2.949zm2.064 10.834l-8.604-2.364c.84-2.002 3.072-3.152 5.277-2.546 2.204.605 3.578 2.746 3.327 4.91z"/></svg>
